packages/packs/core-line-free/icons/widget.svg

<svg xmlns="http://www.w3.org/2000/svg" fill="none" viewBox="0 0 14 14"><path stroke="currentColor" stroke-linecap="round" stroke-linejoin="round" d="M12 9.5a1 1 0 0 1 1 1l0 1.5a1 1 0 0 1-1 1L2 13a1 1 0 0 1-1-1l0-1.5a1 1 0 0 1 1-1zM7 1a1 1 0 0 1 1 1l0 4.5a1 1 0 0 1-1 1l-5.068 0a1 1 0 0 1-1-1l0-4.5a1 1 0 0 1 1-1zm5.469 0a.5.5 0 0 1 .5.5l0 1.25a.5.5 0 0 1-.5.5l-1.969 0a.5.5 0 0 1-.5-.5l0-1.25a.5.5 0 0 1 .5-.5zm0 4.25a.5.5 0 0 1 .5.5l0 1.25a.5.5 0 0 1-.5.5l-1.969 0A.5.5 0 0 1 10 7l0-1.25a.5.5 0 0 1 .5-.5z"></path></svg>

<svg xmlns="http://www.w3.org/2000/svg" fill="none" viewBox="0 0 14 14"><path stroke="currentColor" stroke-linecap="round" stroke-linejoin="round" d="M12 9.5a1 1 0 0 1 1 1V12a1 1 0 0 1-1 1H2a1 1 0 0 1-1-1v-1.5a1 1 0 0 1 1-1zM7 1a1 1 0 0 1 1 1v4.5a1 1 0 0 1-1 1H1.932a1 1 0 0 1-1-1V2a1 1 0 0 1 1-1zm5.469 0a.5.5 0 0 1 .5.5v1.25a.5.5 0 0 1-.5.5H10.5a.5.5 0 0 1-.5-.5V1.5a.5.5 0 0 1 .5-.5zm0 4.25a.5.5 0 0 1 .5.5V7a.5.5 0 0 1-.5.5H10.5A.5.5 0 0 1 10 7V5.75a.5.5 0 0 1 .5-.5z"/></svg>
